src/16/actions/escape-direction-down.svg

<svg xmlns="http://www.w3.org/2000/svg" width="16" height="16" viewBox="0 0 16 16">
 <defs>
  <style id="current-color-scheme" type="text/css">
   .ColorScheme-Text { color:#565656; } .ColorScheme-Highlight { color:#5294e2; }
  </style>
 </defs>
 <path style="fill:currentColor" class="ColorScheme-Text" d="m1 1v14h14v-14h-14zm2 2h10v10h-4v-3.2773c0.5956-0.3464 1-0.984 1-1.7227 0-1.1046-0.8954-2-2-2s-2 0.8954-2 2c0 0.7387 0.4044 1.3763 1 1.7227v3.2773h-4v-10z"/>
</svg>

<svg xmlns="http://www.w3.org/2000/svg" width="16" height="16"><defs><style id="current-color-scheme" type="text/css"></style></defs><path d="M1 1v14h14V1H1zm2 2h10v10H9V9.723A1.99 1.99 0 0 0 10 8a2 2 0 1 0-4 0 1.99 1.99 0 0 0 1 1.723V13H3V3z" fill="currentColor" color="#565656"/></svg>
